X: 24445
T: Lucey's Delight
R: reel
M: 4/4
K: Gmajor
|:d/c/B/A/ Gd edcB|edcB gdcB|
d/c/B/A/ Gd edcB|cdBc A2 D2:|
|:d/c/B/A/ Gd ecBg|d/c/B/A/ Gd cA=fA|
d/c/B/A/ Gd ecBg|c>d cA GG/G/G z:|
|:BG A/B/c/A/ BG A/B/c/A/|BGBG =FA A/B/c/A/|
BG A/B/c/A/ BG A/B/c/A/|c>d c>A GG/G/G z:|

